package/converter/svg/solid/mug.svg

<svg xmlns="http://www.w3.org/2000/svg" viewBox="0 0 576 512"><!-- Font Awesome Pro 6.0.0-alpha2 by @fontawesome - https://fontawesome.com License - https://fontawesome.com/license (Commercial License) --><path d="M448 64H56C49.625 64 43.5 66.5 39 71S32 81.625 32 88V352C32 405 75 448 128 448H320C373 448 416 405 416 352V320H448C518.75 320 576 262.75 576 192S518.75 64 448 64ZM448 256H416V128H448C483.375 128 512 156.625 512 192S483.375 256 448 256Z"/></svg>

<svg xmlns="http://www.w3.org/2000/svg" viewBox="0 0 576 512"><!--! Font Awesome Pro 6.6.0 by @fontawesome - https://fontawesome.com License - https://fontawesome.com/license (Commercial License) Copyright 2024 Fonticons, Inc. --><path d="M64 64C46.3 64 32 78.3 32 96l0 256c0 53 43 96 96 96l192 0c53 0 96-43 96-96l0-32 32 0c70.7 0 128-57.3 128-128s-57.3-128-128-128l-64 0L64 64zm352 64l32 0c35.3 0 64 28.7 64 64s-28.7 64-64 64l-32 0 0-128z"/></svg>
